svgs/cloudstream.svg

<svg width="24" height="24" viewBox="0 0 24 24" fill="none" xmlns="http://www.w3.org/2000/svg">
<path d="M19.8938 12.2949C19.6803 12.2947 19.4679 12.3271 19.2642 12.391C19.1392 11.741 18.7998 11.1515 18.3004 10.7171C17.8011 10.2827 17.1703 10.0281 16.5093 9.99435C16.1482 9.00193 15.4526 8.16548 14.5427 7.62952C13.6327 7.09356 12.5639 6.89072 11.5209 7.05613C10.4779 7.22147 9.52426 7.74493 8.82471 8.5361C8.06479 8.27883 7.24 8.28485 6.48397 8.55325C5.72794 8.82158 5.08381 9.33696 4.65617 10.0157C4.22853 10.6944 4.0417 11.4979 4.12601 12.2957H4.10619C3.54781 12.2957 3.0117 12.5177 2.61692 12.9126C2.22205 13.3074 2 13.8435 2 14.4019C2 14.9602 2.22205 15.4963 2.61692 15.8911C3.0117 16.286 3.54781 16.508 4.10619 16.508H19.8938C20.4522 16.508 20.9883 16.286 21.3831 15.8911C21.7779 15.4963 22 14.9602 22 14.4019C22 13.8435 21.7779 13.3074 21.3831 12.9126C20.9883 12.5177 20.4522 12.2957 19.8938 12.2957V12.2949Z" fill="#2309DB"/>
<path d="M17.1161 10.4936C17.1161 10.358 17.1115 10.223 17.1061 10.0889C16.9109 10.037 16.711 10.0054 16.5093 9.99435C16.1482 9.00193 15.4526 8.16548 14.5427 7.62952C13.6327 7.09356 12.5639 6.89072 11.5209 7.05613C10.4779 7.22147 9.52426 7.74493 8.82471 8.5361C8.06479 8.27883 7.24 8.28485 6.48397 8.55325C5.72794 8.82158 5.08381 9.33696 4.65617 10.0157C4.22853 10.6944 4.0417 11.4979 4.12601 12.2957H4.10619C3.54781 12.2957 3.0117 12.5177 2.61691 12.9126C2.22205 13.3074 2 13.8435 2 14.4019C2 14.9602 2.22205 15.4963 2.61691 15.8911C3.0117 16.286 3.54781 16.508 4.10619 16.508H14.8589C16.3161 14.8442 17.1188 12.7054 17.1161 10.4936Z" fill="#2149D8"/>
<path d="M8.82471 8.53611C8.06479 8.27884 7.24 8.28486 6.48397 8.55326C5.72793 8.82158 5.08381 9.33696 4.65617 10.0157C4.22852 10.6944 4.04169 11.4979 4.126 12.2957H4.10618C3.56061 12.2976 3.03662 12.5115 2.64557 12.8919C2.25444 13.2723 2.02614 13.7902 2.00914 14.3355C1.99214 14.8808 2.18774 15.4119 2.5544 15.8159C2.92098 16.22 3.43072 16.4661 3.97507 16.502C6.33784 16.4341 8.58329 15.447 10.2307 13.7518C11.878 12.0566 12.8005 9.78389 12.8008 7.42013C12.8008 7.29206 12.7962 7.16476 12.7909 7.03899C12.6059 7.01467 12.4195 7.00194 12.2329 7.00087C11.5884 7.00019 10.9511 7.13671 10.3634 7.40138C9.77581 7.66612 9.2512 8.05297 8.82471 8.53611Z" fill="#5C89F7"/>
</svg>

<svg xmlns="http://www.w3.org/2000/svg" viewBox="0 0 24 24"><path d="M8.825 8.536a3.573 3.573 0 0 0-4.699 3.76h-.02a2.106 2.106 0 0 0-.13 4.206A9.09 9.09 0 0 0 12.8 7.42c0-.128-.005-.255-.01-.381a4.479 4.479 0 0 0-.558-.038 4.541 4.541 0 0 0-3.408 1.535m8.292 1.958c0-.136-.005-.271-.01-.405a2.95 2.95 0 0 0-.597-.095 4.551 4.551 0 0 0-7.684-1.458 3.573 3.573 0 0 0-4.699 3.76h-.02a2.107 2.107 0 0 0 0 4.212H14.86a9.114 9.114 0 0 0 2.257-6.014m2.777 1.801c-.214 0-.426.032-.63.096a2.96 2.96 0 0 0-2.755-2.397 4.551 4.551 0 0 0-7.684-1.458 3.573 3.573 0 0 0-4.699 3.76h-.02a2.107 2.107 0 0 0 0 4.212h15.788a2.107 2.107 0 0 0 0-4.212v-.001"/></svg>
